frontend/src/assets/trophy.svg

<svg
   xmlns="http://www.w3.org/2000/svg"
/>
<g
   id="g6"
   style="fill:#e9e9e9;fill-opacity:1">
	<g
   id="g4"
   style="fill:#e9e9e9;fill-opacity:1">
		<path
   d="M466.45,49.374c-7.065-8.308-17.368-13.071-28.267-13.071H402.41v-11.19C402.41,11.266,391.143,0,377.297,0H134.705    c-13.848,0-25.112,11.266-25.112,25.112v11.19H73.816c-10.899,0-21.203,4.764-28.267,13.071    c-6.992,8.221-10.014,19.019-8.289,29.624c9.4,57.8,45.775,108.863,97.4,136.872c4.717,11.341,10.059,22.083,16.008,32.091    c19.002,31.975,42.625,54.073,68.627,64.76c2.635,26.644-15.094,51.885-41.794,57.9c-0.057,0.013-0.097,0.033-0.153,0.046    c-5.211,1.245-9.09,5.921-9.09,11.513v54.363h-21.986c-19.602,0-35.549,15.947-35.549,35.549v28.058    c0,6.545,5.305,11.85,11.85,11.85H390.56c6.545,0,11.85-5.305,11.85-11.85v-28.058c0-19.602-15.947-35.549-35.549-35.549h-21.988    V382.18c0-5.603-3.893-10.286-9.118-11.52c-0.049-0.012-0.096-0.028-0.145-0.04c-26.902-6.055-44.664-31.55-41.752-58.394    c25.548-10.86,48.757-32.761,67.479-64.264c5.949-10.009,11.29-20.752,16.008-32.095c51.622-28.01,87.995-79.072,97.395-136.87    C476.465,68.392,473.443,57.595,466.45,49.374z M60.652,75.192c-0.616-3.787,0.431-7.504,2.949-10.466    c2.555-3.004,6.277-4.726,10.214-4.726h35.777v21.802c0,34.186,4.363,67.3,12.632,97.583    C89.728,153.706,67.354,116.403,60.652,75.192z M366.861,460.243c6.534,0,11.85,5.316,11.85,11.85v16.208H134.422v-16.208    c0-6.534,5.316-11.85,11.85-11.85H366.861z M321.173,394.03v42.513H191.96V394.03H321.173z M223.037,370.331    c2.929-3.224,5.607-6.719,8.002-10.46c7.897-12.339,12.042-26.357,12.228-40.674c4.209,0.573,8.457,0.88,12.741,0.88    c4.661,0,9.279-0.358,13.852-1.036c0.27,19.239,7.758,37.45,20.349,51.289H223.037z M378.709,81.803    c0,58.379-13.406,113.089-37.747,154.049c-23.192,39.03-53.364,60.525-84.956,60.525c-31.597,0-61.771-21.494-84.966-60.523    c-24.342-40.961-37.748-95.671-37.748-154.049V25.112c0-0.78,0.634-1.413,1.412-1.413h242.591c0.78,0,1.414,0.634,1.414,1.413    V81.803z M451.348,75.192c-6.702,41.208-29.074,78.51-61.569,104.191c8.268-30.283,12.631-63.395,12.631-97.58V60.001h35.773    c3.938,0,7.66,1.723,10.214,4.726C450.915,67.688,451.963,71.405,451.348,75.192z"
   id="path2"
   style="fill:#e9e9e9;fill-opacity:1" />
	</g>
</g>
<g
   id="g12"
   style="fill:#e9e9e9;fill-opacity:1">
	<g
   id="g10"
   style="fill:#e9e9e9;fill-opacity:1">
		<path
   d="M327.941,121.658c-1.395-4.288-5.103-7.414-9.566-8.064l-35.758-5.196l-15.991-32.402    c-1.997-4.044-6.116-6.605-10.626-6.605c-4.511,0-8.63,2.561-10.626,6.605l-15.991,32.402l-35.758,5.196    c-4.464,0.648-8.172,3.775-9.566,8.065c-1.393,4.291-0.231,8.999,2.999,12.148l25.875,25.221l-6.109,35.613    c-0.763,4.446,1.064,8.938,4.714,11.59c3.648,2.651,8.487,3,12.479,0.902L256,190.32l31.982,16.813    c1.734,0.911,3.627,1.36,5.512,1.36c2.456,0,4.902-0.763,6.966-2.263c3.65-2.652,5.477-7.144,4.714-11.59l-6.109-35.613    l25.875-25.221C328.172,130.658,329.334,125.949,327.941,121.658z M278.064,146.405c-2.793,2.722-4.068,6.644-3.408,10.489    l3.102,18.09l-16.245-8.541c-1.725-0.908-3.62-1.36-5.514-1.36c-1.894,0-3.788,0.454-5.514,1.36l-16.245,8.541l3.102-18.09    c0.66-3.844-0.615-7.766-3.408-10.489l-13.141-12.81l18.162-2.64c3.859-0.56,7.196-2.985,8.922-6.482l8.123-16.458l8.122,16.458    c1.727,3.497,5.062,5.921,8.922,6.482l18.162,2.64L278.064,146.405z"
   id="path8"
   style="fill:#e9e9e9;fill-opacity:1" />
	</g>
</g>
<g
   id="g14">
</g>
<g
   id="g16">
</g>
<g
   id="g18">
</g>
<g
   id="g20">
</g>
<g
   id="g22">
</g>
<g
   id="g24">
</g>
<g
   id="g26">
</g>
<g
   id="g28">
</g>
<g
   id="g30">
</g>
<g
   id="g32">
</g>
<g
   id="g34">
</g>
<g
   id="g36">
</g>
<g
   id="g38">
</g>
<g
   id="g40">
</g>
<g
   id="g42">
</g>
</svg>

<svg width="512" height="512" viewBox="0 0 512 512" fill="none" xmlns="http://www.w3.org/2000/svg">
<g clip-path="url(#clip0_100:24)">
<path d="M466.45 49.374C459.385 41.066 449.082 36.303 438.183 36.303H402.41V25.113C402.41 11.266 391.143 0 377.297 0H134.705C120.857 0 109.593 11.266 109.593 25.112V36.302H73.8161C62.9171 36.302 52.6131 41.066 45.5491 49.373C38.5571 57.594 35.5351 68.392 37.2601 78.997C46.6601 136.797 83.0351 187.86 134.66 215.869C139.377 227.21 144.719 237.952 150.668 247.96C169.67 279.935 193.293 302.033 219.295 312.72C221.93 339.364 204.201 364.605 177.501 370.62C177.444 370.633 177.404 370.653 177.348 370.666C172.137 371.911 168.258 376.587 168.258 382.179V436.542H146.272C126.67 436.542 110.723 452.489 110.723 472.091V500.149C110.723 506.694 116.028 511.999 122.573 511.999H390.56C397.105 511.999 402.41 506.694 402.41 500.149V472.091C402.41 452.489 386.463 436.542 366.861 436.542H344.873V382.18C344.873 376.577 340.98 371.894 335.755 370.66C335.706 370.648 335.659 370.632 335.61 370.62C308.708 364.565 290.946 339.07 293.858 312.226C319.406 301.366 342.615 279.465 361.337 247.962C367.286 237.953 372.627 227.21 377.345 215.867C428.967 187.857 465.34 136.795 474.74 78.997C476.465 68.392 473.443 57.595 466.45 49.374ZM60.6521 75.192C60.0361 71.405 61.0831 67.688 63.6011 64.726C66.1561 61.722 69.8781 60 73.8151 60H109.592V81.802C109.592 115.988 113.955 149.102 122.224 179.385C89.7281 153.706 67.3541 116.403 60.6521 75.192ZM366.861 460.243C373.395 460.243 378.711 465.559 378.711 472.093V488.301H134.422V472.093C134.422 465.559 139.738 460.243 146.272 460.243H366.861V460.243ZM321.173 394.03V436.543H191.96V394.03H321.173ZM223.037 370.331C225.966 367.107 228.644 363.612 231.039 359.871C238.936 347.532 243.081 333.514 243.267 319.197C247.476 319.77 251.724 320.077 256.008 320.077C260.669 320.077 265.287 319.719 269.86 319.041C270.13 338.28 277.618 356.491 290.209 370.33H223.037V370.331ZM378.709 81.803C378.709 140.182 365.303 194.892 340.962 235.852C317.77 274.882 287.598 296.377 256.006 296.377C224.409 296.377 194.235 274.883 171.04 235.854C146.698 194.893 133.292 140.183 133.292 81.805V25.112C133.292 24.332 133.926 23.699 134.704 23.699H377.295C378.075 23.699 378.709 24.333 378.709 25.112V81.803V81.803ZM451.348 75.192C444.646 116.4 422.274 153.702 389.779 179.383C398.047 149.1 402.41 115.988 402.41 81.803V60.001H438.183C442.121 60.001 445.843 61.724 448.397 64.727C450.915 67.688 451.963 71.405 451.348 75.192Z" fill="#E9E9E9"/>
<path d="M327.941 121.658C326.546 117.37 322.838 114.244 318.375 113.594L282.617 108.398L266.626 75.996C264.629 71.952 260.51 69.391 256 69.391C251.489 69.391 247.37 71.952 245.374 75.996L229.383 108.398L193.625 113.594C189.161 114.242 185.453 117.369 184.059 121.659C182.666 125.95 183.828 130.658 187.058 133.807L212.933 159.028L206.824 194.641C206.061 199.087 207.888 203.579 211.538 206.231C215.186 208.882 220.025 209.231 224.017 207.133L256 190.32L287.982 207.133C289.716 208.044 291.609 208.493 293.494 208.493C295.95 208.493 298.396 207.73 300.46 206.23C304.11 203.578 305.937 199.086 305.174 194.64L299.065 159.027L324.94 133.806C328.172 130.658 329.334 125.949 327.941 121.658ZM278.064 146.405C275.271 149.127 273.996 153.049 274.656 156.894L277.758 174.984L261.513 166.443C259.788 165.535 257.893 165.083 255.999 165.083C254.105 165.083 252.211 165.537 250.485 166.443L234.24 174.984L237.342 156.894C238.002 153.05 236.727 149.128 233.934 146.405L220.793 133.595L238.955 130.955C242.814 130.395 246.151 127.97 247.877 124.473L256 108.015L264.122 124.473C265.849 127.97 269.184 130.394 273.044 130.955L291.206 133.595L278.064 146.405Z" fill="#E9E9E9"/>
</g>
<defs>
<clipPath id="clip0_100:24">
<rect width="511.999" height="511.999" fill="white"/>
</clipPath>
</defs>
</svg>
